icons/coffeescript.svg

<svg width="16" height="16" viewBox="0 0 16 16" fill="none" xmlns="http://www.w3.org/2000/svg">
<path d="M11.88 7H2.5V9.5C2.50051 10.5145 2.84381 11.499 3.47419 12.2939C4.10457 13.0888 4.98505 13.6473 5.97276 13.8789C6.96047 14.1105 7.99745 14.0015 8.91545 13.5697C9.83345 13.1379 10.5786 12.4085 11.03 11.5H11.88C12.4741 11.5 13.0438 11.264 13.4639 10.8439C13.884 10.4238 14.12 9.85409 14.12 9.26C14.12 8.66592 13.884 8.09616 13.4639 7.67608C13.0438 7.256 12.4741 7.02 11.88 7.02V7ZM11.88 10.49H11.38V8H11.88C12.2115 8 12.5295 8.1317 12.7639 8.36612C12.9983 8.60054 13.13 8.91848 13.13 9.25C13.13 9.58152 12.9983 9.89946 12.7639 10.1339C12.5295 10.3683 12.2115 10.5 11.88 10.5V10.49Z" fill="#AE7F64"/>
<path d="M5.72204 2.15386L5.72204 3.21319C5.57999 3.24318 5.42942 3.33738 5.30442 3.41237C5.17942 3.48521 5.07857 3.58376 5.00187 3.70802C4.92516 3.83227 4.88681 3.98438 4.88681 4.16434C4.88681 4.40643 4.95641 4.60996 5.09562 4.77492C5.23482 4.93774 5.41522 5.01808 5.63681 5.01594C5.82715 5.01808 5.98198 4.96559 6.1013 4.85847C6.22062 4.74921 6.31863 4.56925 6.39533 4.31859L6.63397 3.47664C6.76749 3.0096 6.97914 2.66253 7.26891 2.43544C7.55869 2.20621 7.93795 2.09052 8.4067 2.08838C8.81863 2.09052 9.18227 2.18157 9.49761 2.36153C9.81011 2.53935 10.0544 2.78679 10.2306 3.10386C10.4067 3.42094 10.4948 3.78514 10.4948 4.19648C10.4948 4.80063 10.3272 5.28695 9.99192 5.65544C9.65386 6.02393 9.0388 6.26051 8.43653 6.33121L8.43653 5.17983C8.73198 5.12841 8.95499 5.01915 9.10556 4.85205C9.25613 4.68494 9.33141 4.46749 9.33141 4.19969C9.33141 3.92332 9.25613 3.70159 9.10556 3.53448C8.95499 3.36523 8.76891 3.28061 8.54732 3.28061C8.35982 3.28061 8.20499 3.33524 8.08283 3.4445C7.96067 3.55162 7.86692 3.71873 7.80158 3.94582L7.56721 4.78777C7.43653 5.26124 7.21636 5.61152 6.9067 5.83861C6.5942 6.0657 6.19931 6.17818 5.72204 6.17604C5.31863 6.17818 4.9692 6.0957 4.67374 5.92859C4.37545 5.75934 4.14533 5.52475 3.9834 5.22482C3.81863 4.92275 3.73624 4.57461 3.73624 4.18041C3.73624 3.60197 3.89959 3.14671 4.2263 2.81464C4.553 2.48043 4.94131 2.2538 5.72204 2.15386Z" fill="#AE7F64"/>
</svg>

<svg xmlns="http://www.w3.org/2000/svg" width="16" height="16" fill="none" viewBox="0 0 16 16"><path fill="#AE7F64" d="M11.88 7H2.5v2.5a4.5 4.5 0 0 0 8.53 2h.85a2.24 2.24 0 1 0 0-4.48zm0 3.49h-.5V8h.5a1.25 1.25 0 0 1 0 2.5zM5.722 2.154v1.06c-.142.03-.293.123-.418.198a.86.86 0 0 0-.302.296.85.85 0 0 0-.115.456q0 .363.209.61a.67.67 0 0 0 .54.242q.286.003.465-.158.18-.163.294-.54l.239-.841q.2-.7.635-1.042t1.138-.347q.618.004 1.09.274.469.266.734.742.264.476.264 1.092 0 .907-.503 1.46c-.338.368-.953.605-1.555.675V5.18q.443-.077.669-.328.225-.251.225-.652 0-.415-.225-.666a.72.72 0 0 0-.559-.253.67.67 0 0 0-.464.163q-.183.162-.281.502l-.235.842q-.195.71-.66 1.05-.47.341-1.185.338-.605.003-1.048-.247a1.75 1.75 0 0 1-.69-.704 2.15 2.15 0 0 1-.248-1.045q0-.867.49-1.365c.327-.335.715-.561 1.496-.661"/></svg>
